X:1
T:Title
%%score { ( 1 4 5 ) | ( 2 3 6 ) }
L:1/8
M:6/8
K:F
V:1 treble nm="Grand Piano"
V:4 treble 
V:5 treble 
V:2 bass 
V:3 bass 
V:6 bass 
V:1
 z3 z2[Q:1/4=84] F/G/ | AAA AGA | [EB]3- [EB]2 [Ec] | cdc [Ac][GB][FA] |[M:5/8] [EG]-[EG]- [EG]3 | %5
[M:1/8] [Ec]/B/ |[M:3/4] A>A AA Bc | d4- dB/G/ | F>E F[EA] [EA]>G |[M:5/8] F-F- F3 |[M:1/8] F | %11
[M:3/4] [DB]>[DB] [DB][DB] [DB][DB] | [DB]3 [Fd]3 | c>d c[Ac] [GB][FA] |[M:5/8] [EG]-[EG]- [EG]3 | %15
[M:5/32] z/ B3/4 |[M:3/4] (9:8:10A3/2A3/4 A-A/8A-A/8 B-B/8c-c/8 | d4- d[Fd] | %18
[M:13/16] (9:8:15[Fc]3/2-[Fc]/8[DFB]3/4-[DFB]/16[CFA]3/4-[CFA]/16[B,EG]-[B,EG]3/16-[B,EG]/32[CEA]3/8-[CEA]-[CEA]/4G- G3/16-G/32 | %19
[M:5/8] z5 |[M:1/8] z/ B/ |[M:3/4] (9:8:10c3/2c3/4 c-c/8[Ec]-[Ec]/8 [Fc]-[Fc]/8[Gc]-[Gc]/8 | %22
 c4- c-c/4 z/4 z/ | (9:8:10c3/2d3/4 c-c/8[Ac]-[Ac]/8 [GB]-[GB]/8[FA]-[FA]/8 |[M:5/8] G-G- G3- | %25
[M:1/8] G/4 z/4 [GB]/ |[M:3/4] (7:8:8A3/4A-A/8A3/4A3/4B-B/8c3/4 | (3:2:4d4- d/ [Fd]4- [Fd]/ | %28
 (9:8:10[Fc]3/2[DFB]3/4 [CFA]-[CFA]/8[B,EG]-[B,EG]/8 [CEA]-[CEA]/8[B,CG]-[B,CG]/8 | %29
[M:5/8] [A,CF]-[A,CF]- [A,CF]3 |] %30
V:2
 z3 z2 [F,A,]/[F,B,F]/ | [F,CF][F,CF][F,CF] [F,CF][F,CF][F,F] | [C,G,]3- [C,G,]2 [C,G,] | %3
 [F,A,F][F,B,F][F,A,F] [F,C][E,C][F,C] |[M:5/8] [C,C]-[C,C]- [C,C]3 |[M:1/8] G,/[K:treble][CG]/ | %6
[M:3/4] [F,CF]>[F,CF] [F,CF][F,CF] [G,CF][A,CF] | [B,F]4- [B,F][K:bass][B,,B,] | %8
 [C,A,C]>[C,G,C] [C,A,C][C,C] [C,C]>[C,B,C] |[M:5/8] [F,A,C]-[F,A,C]- [F,A,C]3 |[M:1/8] [F,A,C] | %11
[M:3/4] [B,,F,]>[B,,F,] [B,,F,][B,,F,] [B,,F,][B,,F,] | [B,,F,]3 [B,,B,]3 | %13
 [F,A,F]>[F,B,F] [F,A,F][F,C] [E,C][F,C] |[M:5/8] [C,C]-[C,C]- [C,C]3 | %15
[M:5/32] G,/-[G,C-G-]/4[CG]/ | %16
[M:3/4][K:treble] (9:8:10[F,CF]3/2[F,CF]3/4 [F,CF]-[F,CF]/8[F,CF]-[F,CF]/8 [G,CF]-[G,CF]/8[A,CF]-[A,CF]/8 | %17
 B,6 | %18
[M:13/16] (9:8:15[C,A,]3/2-[C,A,]/8C,3/4-C,/16C,3/4-C,/16C,-C,3/16-C,/32C,3/8-C,-C,/4[C,B,C]- [C,B,C]3/16-[C,B,C]/32 | %19
[M:5/8] [A,C]-[A,C]- [A,C]3- |[M:1/8] [A,C]/4 z/4 z/ | %21
[M:3/4] (9:8:10[F,A,F]3/2[F,A,F]3/4 [F,A,F]-[F,A,F]/8[C,G,]-[C,G,]/8 [C,A,]-[C,A,]/8[C,B,]-[C,B,]/8 | %22
 [F,F]6 | (9:8:10[F,A,F]3/2[F,B,F]3/4 [F,A,F]-[F,A,F]/8[F,C]-[F,C]/8 [E,C]-[E,C]/8[F,C]-[F,C]/8 | %24
[M:5/8] C-C- C3- |[M:1/8] C/4 z/4 z/ | %26
[M:3/4][K:treble] (7:8:8[F,CF]3/4[F,CF]-[F,CF]/8[F,CF]3/4[F,CF]3/4[G,CF]-[G,CF]/8[A,CF]3/4 | %27
 (3:2:4[B,F]4- [B,F]/[K:bass] [B,,B,]4- [B,,B,]/ | %28
 (9:8:10[C,A,]3/2C,3/4 C,-C,/8C,-C,/8 C,-C,/8C,-C,/8 |[M:5/8] F,-F,- F,3 |] %30
V:3
 x6 | x6 | x6 | x6 |[M:5/8] x5 |[M:1/8] C,[K:treble] |[M:3/4] x6 | x5[K:bass] x | x6 |[M:5/8] x5 | %10
[M:1/8] x |[M:3/4] x6 | x6 | x6 |[M:5/8] x5 |[M:5/32] C,/4-C,/-<C,/ |[M:3/4][K:treble] x6 | %17
 F4- F-[B,,-B,-F]/<[B,,B,]/ |[M:13/16] x6 |[M:5/8] F,-F,- F,3 |[M:1/8] [F,F]/[F,G,F]/ |[M:3/4] x6 | %22
 A,4- A,-[F,-A,F-]/4[F,F]/4[F,G,F]/ | x6 |[M:5/8] x5 |[M:1/8] G,3/4 z/4 |[M:3/4][K:treble] x6 | %27
 x3[K:bass] x3 | x6 |[M:5/8] x5 |] %30
V:4
 x6 | x6 | x6 | x6 |[M:5/8] x5 |[M:1/8] x |[M:3/4] x6 | z2 z2 z D | x6 |[M:5/8] x5 |[M:1/8] x | %11
[M:3/4] x6 | x6 | x6 |[M:5/8] x5 |[M:5/32] [Ec]3/4 z/ |[M:3/4] x6 | x6 |[M:13/16] x6 |[M:5/8] x5 | %20
[M:1/8] A3/4 z/4 |[M:3/4] x6 | z2 z2 z z/ B/ | x6 |[M:5/8] E-E- E3 |[M:1/8] [Ec]3/4 z/4 | %26
[M:3/4] x6 | x6 | x6 |[M:5/8] x5 |] %30
V:5
 x6 | x6 | x6 | x6 |[M:5/8] x5 |[M:1/8] x |[M:3/4] x6 | x6 | x6 |[M:5/8] x5 |[M:1/8] x | %11
[M:3/4] x6 | x6 | x6 |[M:5/8] x5 |[M:5/32] x5/4 |[M:3/4] x6 | x6 |[M:13/16] x6 |[M:5/8] F-F- F3- | %20
[M:1/8] F/4 z/4 z/ |[M:3/4] x6 | z2 z2 z A3/4 z/4 | x6 |[M:5/8] x5 |[M:1/8] x |[M:3/4] x6 | x6 | %28
 x6 |[M:5/8] x5 |] %30
V:6
 x6 | x6 | x6 | x6 |[M:5/8] x5 |[M:1/8] x/[K:treble] x/ |[M:3/4] x6 | x5[K:bass] x | x6 | %9
[M:5/8] x5 |[M:1/8] x |[M:3/4] x6 | x6 | x6 |[M:5/8] x5 |[M:5/32] x5/4 |[M:3/4][K:treble] x6 | x6 | %18
[M:13/16] x6 |[M:5/8] x5 |[M:1/8] x |[M:3/4] x6 | x6 | x6 |[M:5/8] C,-C,- C,3 |[M:1/8] C,/[C,C]/ | %26
[M:3/4][K:treble] x6 | x3[K:bass] x3 | x6 |[M:5/8] x5 |] %30

